src/4-icons/card.svg

<svg width="260" height="260" viewBox="0 0 260 260" fill="none" xmlns="http://www.w3.org/2000/svg"><g opacity=".9" fill="#000"><path d="M36 128a7 7 0 1 0 0 14h46a7 7 0 1 0 0-14H36Z"/><path fill-rule="evenodd" clip-rule="evenodd" d="M15 45C6.716 45 0 51.716 0 60v140c0 8.284 6.716 15 15 15h230c8.284 0 15-6.716 15-15V60c0-8.284-6.716-15-15-15H15Zm-1 146v-86h232v86c0 5.523-4.477 10-10 10H24c-5.523 0-10-4.477-10-10Zm0-100h232V69c0-5.523-4.477-10-10-10H24c-5.523 0-10 4.477-10 10v22Z"/></g></svg>

<svg width="260" height="260" viewBox="0 0 260 260" fill="none" xmlns="http://www.w3.org/2000/svg">
<g opacity="0.9">
<path d="M36 128C32.134 128 29 131.134 29 135C29 138.866 32.134 142 36 142H82C85.866 142 89 138.866 89 135C89 131.134 85.866 128 82 128H36Z" fill="black"/>
<path fill-rule="evenodd" clip-rule="evenodd" d="M15 45C6.71573 45 0 51.7157 0 60V200C0 208.284 6.71572 215 15 215H245C253.284 215 260 208.284 260 200V60C260 51.7157 253.284 45 245 45H15ZM14 191V105H246V191C246 196.523 241.523 201 236 201H24C18.4772 201 14 196.523 14 191ZM14 91H246V69C246 63.4771 241.523 59 236 59H24C18.4772 59 14 63.4771 14 69V91Z" fill="black"/>
</g>
</svg>
